X: 5835
T: Callan Lasses, The
R: reel
M: 4/4
K: Dmajor
ADAD ADFD|ADFA BcdB|ADDD ADFA|GEEE GABd|
ADDD ADFD|ADFA BcdB|ADDD ADFA|1 GEEE GABd:|2 GEEE GABc||
|:d2 fd AdFA|d2 fd cdec|d2 fd BdAF|GEEE GABc|
d2 fd AdFA|d2 fd cdeg|fdec dBAF|1 GEEE GABc:|2 GEEE GABd||

